resources/svg/sign.svg

<svg xmlns="http://www.w3.org/2000/svg" viewBox="0 0 15 15" fill="currentColor"><path fill-rule="evenodd" clip-rule="evenodd" d="M1 1V3H0V4H1V15H2V4H6V6H4.5C4.22386 6 4 6.22386 4 6.5V12.5C4 12.7761 4.22386 13 4.5 13H14.5C14.7761 13 15 12.7761 15 12.5V6.5C15 6.22386 14.7761 6 14.5 6H13V4H15V3H2V1H1ZM7 6V4H12V6H7Z" fill="black"/></svg>

<svg xmlns="http://www.w3.org/2000/svg" viewBox="0 0 15 15" fill="currentColor"><path fill-rule="evenodd" clip-rule="evenodd" d="M1 1v2H0v1h1v11h1V4h4v2H4.5a.5.5 0 00-.5.5v6a.5.5 0 00.5.5h10a.5.5 0 00.5-.5v-6a.5.5 0 00-.5-.5H13V4h2V3H2V1H1zm6 5V4h5v2H7z" fill="currentColor"/></svg>
